src/svgs/yen-circled.svg

<svg xmlns="http://www.w3.org/2000/svg" viewBox="0 0 24 24" width="512" height="512"><path d="M12 2a10 10 0 1010 10A10 10 0 0012 2zm1 10h3v2h-3v2h3v2h-3v2h-2v-2H8v-2h3v-2H8v-2h3v-.232L7.134 5.34l1.732-1L12 9.5l3.134-5.16 1.732 1L13 11.768z"/></svg>

<svg xmlns="http://www.w3.org/2000/svg" viewBox="0 0 24 24"><path d="M12,2A10,10,0,1,0,22,12,10,10,0,0,0,12,2Zm1,10h3v2H13v2h3v2H13v2H11V18H8V16h3V14H8V12h3v-.232L7.134,5.34l1.732-1L12,9.5l3.134-5.16,1.732,1L13,11.768Z"/></svg>
